X:1
T:Io d'altrui
T:Io d'altrui
T:Enrico Radesca di Foggio
T:Source : Canzonette a 2 voci---Libro III---Venetia---G.Vincent1616. Editor : André Vierendeels (02/04/14).
C:Enrico Radesca di Foggio
%%score [ 1 2 ] 3
L:1/8
Q:1/4=90
M:4/4
K:C
V:1 treble nm="Soprano" snm="S"
V:2 bass nm="Bass" snm="B"
V:3 bass nm="MusicXML Part"
V:1
 z2 d4 A2 | B8 | z2 c4 G2 | A4 z2 cc | d6 c2 | B3 A A4 | G4 z2 dd | e6 d2 | c2 f2 e4 | d8 | d6 c2 | %11
w: Io d'al-|trui?|Io d'al-|trui? S'io vo-|less' io|non po- tre-|i, s'io vo-|less' io|non po- tre-|i,|ne po-|
 B2 AG A4 | G8 :: z4 B2 c2 | d4 d2 e2 | d2 c2 B2 A2 | B4 B2 B2 | e4 e2 d2 | ^c2 c2 c2 c2 | d4 A4 | %20
w: ten- do vor- re-|i:|se'l mio|cor tut- to|quan- to pos- se-|de- te, se|tan- to son|trans- for- ma- t'in|voi che|
 B6 c2 | d8 | c8 | d2 dd c2 c2 | B6 A2 | G3 A A4 | G8 | G2 GG F2 F2 | E6 D2 | C3 D D4 | C4 z2 c2 | %31
w: non son'|i-|o,|co- me sa- ro d'al-|trui, se|non son mi-|o?|Co- me sa- ro d'al-|trui, se|non son mi-|o, se|
 B6 A2 | A8 | G8 :| z8 |] %35
w: non son|mi-|o?||
V:2
 D,6 D,2 | G,8 | C,6 C,2 | F,4 z2 C,C, | F,4 D,4 | E,2 C,2 D,4 | G,,4 z2 G,G, | C,4 G,4 | %8
w: Io d'al-|trui?|Io d'al-|trui? S'io vo-|less' io|non po- tre-|i, s'io vo-|less' io|
 A,2 D,2 A,4 | D,8 | G,4 D,4 | E,2 C,E, D,4 | G,,8 :: z4 G,2 A,2 | G,4 G,2 C,2 | D,2 D,2 E,2 F,2 | %16
w: non po- tre-|i,|ne po-|ten- do vor- re-|i:|se'l mio|cor tut- to|quan- to pos- se-|
 E,4 E,4 | z4 E,4 | A,4 A,2 G,2 | ^F,2 F,2 F,2 F,2 | G,4 E,4 | F,2 F,2 G,4 | C,8 | %23
w: de- te,|se|tan- to son|trans- for- ma- t'in|voi che|non son' i-|o,|
 G,2 G,G, A,2 ^F,2 | G,4 D,4 | E,2 C,2 D,4 | G,,8 | C,2 C,C, D,2 B,,2 | C,4 G,,4 | A,,2 F,,2 G,,4 | %30
w: co- me sa- ro d'al-|trui, se|non son mi-|o?|Co- me sa- ro d'al-|trui, se|non son mi-|
 C,4 A,,4 | B,,6 C,2 | D,8 | G,,8 :| z8 |] %35
w: o, se|non son|mi-|o?||
V:3
 D,8 | G,8 | C,8 | F,4 C,4 | F,4 D,4 | E,2 C,2 D,4 | G,,4 G,4 | C,4 G,4 | A,2 D,2 A,4 | D,8 | %10
 G,4 D,4 | E,2 C,2 D,4 | G,,8 :: G,6 A,2 | G,6 C,2 | D,4 E,2 F,2 | E,6 E,2 | E,8 | A,6 G,2 | ^F,8 | %20
 G,4 E,4 | F,4 G,4 | C,8 | G,4 A,2 ^F,2 | G,4 D,4 | E,2 C,2 D,4 | G,,8 | C,4 D,2 B,,2 | C,4 G,,4 | %29
 A,,2 F,,2 G,,4 | C,4 A,,4 | B,,6 C,2 | D,8 | G,,8 :| z8 |] %35

